X:1
T:[ID 7-51]
T:[ID 7-51]
T:Bezeichnung standardisiert: Menuet [mit Trio] 3. Men: [mit Trio]
T:Urheber unbekannt Datum in der hier transkribierten schriftlichen Quelle: 1776 - 1791
C:Urheber unbekannt
C:Datum in der hier transkribierten schriftlichen Quelle: 1776 - 1791
%%score 1 2
L:1/8
M:3/4
K:G
V:1 treble 
V:2 treble 
V:1
 G4 B>d |{d} c4 B2 | e2 (ec)(BA) |{G} F4 G2 | D3 (F/A/) (3cAF | D3 (G/B/) (3dBG | c2 c2 B2 | %7
{B} A6 :: d4 f>a |{a} g4 f2 | (bg)(gd)(dB) | TB2 A2 z2 | G4 B>d |{d} c4 B2 | A2 G2 F2 |{F} G6 :| %16
[M:3/4]"^Trio" !fermata!Bc d2 d2 | e6 | d2 (dB)(cA) |{A} B6 | Bc d2 d2 | e4 (3efg | d2 c2 B2 | %23
{B} A6 :: AB c2 c2 | Bc d4 | e2 (ed)(cB) | TB2 A2 z2 | Bc d2 d2 | e4 (3efg | dc B2 A2 |{A} G6 :| %32
V:2
 !fermata!G4 B>d |{d} c4 B2 | e2 (ec)(BA) |{G} F4 G2 | D3 (F/A/) (3cAF | D3 (G/B/) (3dBG | %6
 c2 c2 B2 |{B} A6 :: d4 f>a |{a} g4 f2 | d4 (BG) | TG2 F2 z2 | G4 B>d |{d} c4 B2 | A2 G2 F2 | %15
{F} G6 :|[M:3/4] GA B2 B2 | B6 | B2 (BG)(AF) |{F} G6 | GA B2 B2 | c4 e2 | B2 A2 G2 |{G} F6 :: %24
 FG A2 A2 | GA B4 | c2 (cB)(AG) | TG2 F2 z2 | GA B2 B2 | c4 (3cde | BA G2 F2 |{F} G6 :| %32

